X:2142
T:Brudmarsch från Oviken
C:Trad
R:Marsch
O:Jämtland
N:spelad av O. Andersson,kallas Grott-Olles brudmarsch
Z:Jon Bergström 
M:2/4
L:1/16
K:D
A2 |:d4e2fe|d4 (cd)ef|g2ag f2ed|e4 (g2b2)|(a3f) (df)af|
(g3e) (Ac)ec|d4 cdec|d4 z2 A2::A2d2 .d2.d2|d4 cdef|
(g3e) (Ac)ec|d4 (f2a2)|(e3d) c2Bc|(d3B) (^G2FG)|A4 A2Bc|
A4 z2 a2|f4 e2fe|d4 (cd)ef|g2ag f2ed|e4 .g2.b2|
(a3f) (df)af|(g3e) c2Bc| [1(d4 z2 A2):| [2 d6 z2||
(:musicend:)
(:music:)
